public/avatar/hat/52.svg

<svg xmlns:xlink="http://www.w3.org/1999/xlink" height="92.9" width="100.7" xmlns="http://www.w3.org/2000/svg"><g transform="translate(38.65 49.75)"><use height="4" transform="translate(-15.4 8.75)" width="4" xlink:href="#a"/><use height="4" transform="translate(10.9 8.95)" width="4" xlink:href="#a"/><use height="21.95" transform="translate(-14.25 -14.45)" width="26.95" xlink:href="#b"/><use height="4" transform="translate(9.4 -.35)" width="4" xlink:href="#a"/><use height="17.25" transform="translate(4.15 -14)" width="11.75" xlink:href="#c"/><use height="4" transform="translate(7.65 .9)" width="4" xlink:href="#a"/><use height="4" transform="translate(5 1.55)" width="4" xlink:href="#a"/><use height="4" transform="translate(-15.25 -4.6)" width="4" xlink:href="#a"/><use height="4" transform="translate(-13.9 -3.35)" width="4" xlink:href="#a"/><use height="4" transform="translate(-12.25 -2.5)" width="4" xlink:href="#a"/><use height="4" transform="translate(-10.25 -1.25)" width="4" xlink:href="#a"/><use height="4" transform="translate(-8 -.35)" width="4" xlink:href="#a"/><use height="4" transform="translate(-5.75 .95)" width="4" xlink:href="#a"/><use height="4" transform="translate(-4.114 .086) scale(1.728)" width="4" xlink:href="#a"/><use height="4" transform="translate(2.75 1.75)" width="4" xlink:href="#a"/><use height="4" transform="translate(.3 2.15)" width="4" xlink:href="#a"/></g><defs><g id="d"><path d="M.8 1.55Q.2.8 1.15.5q1.15.5.1 1.15Q1 1.8.8 1.55" fill="#fff" fill-rule="evenodd" transform="translate(.5 .5)"/><path d="m2.55 2.55-.25.2-.8.25Q.9 3 .45 2.55 0 2.1 0 1.5 0 .9.45.45.9 0 1.5 0l.8.25.25.2Q3 .9 3 1.5q0 .6-.45 1.05m-1.75-1q.2.25.45.1Q2.3 1 1.15.5.2.8.8 1.55" fill="#ccc" fill-rule="evenodd" transform="translate(.5 .5)"/><path d="m2.55 2.55-.25.2-.8.25Q.9 3 .45 2.55 0 2.1 0 1.5 0 .9.45.45.9 0 1.5 0l.8.25.25.2Q3 .9 3 1.5q0 .6-.45 1.05Z" fill="none" stroke="#999" stroke-linecap="round" stroke-linejoin="round" transform="translate(.5 .5)"/></g><g id="b"><path d="m-10.15 4.95-.55-.7-1.35-2.1Q.15 1.8 10.9-9.65 2.7 3.45-10.15 4.95m-3.6-10.35q1-2.65 3.8-4.75 2.2 3.35 5.9 5.25l2.05.85-1.2.2Q-8.9-2.8-13.75-5.4m7.8-7.1q4.55-2.05 9.55-1.25 2.7.55 5.35 1.95Q8-9.95 6.5-8.5L3.05-5.95l-1.95-1q-3.9-2.1-7.05-5.55" fill="#fff" fill-rule="evenodd" transform="translate(14.25 14.45)"/><path d="m-9.95-10.15 2.6-1.7 1.4-.65Q-2.8-9.05 1.1-6.95l1.95 1Q.65-4.6-2-4.05l-2.05-.85q-3.7-1.9-5.9-5.25" fill="#ffc" fill-rule="evenodd" transform="translate(14.25 14.45)"/><path d="m8.95-11.8 1.95 2.15q.65.95 1.1 3 .45 2-.1 5.2-.55 3.15-3.55 5.55t-8.5 2.85q-5.1.25-9.8-1.75l-.2-.25Q2.7 3.45 10.9-9.65.15 1.8-12.05 2.15q-1.8-3.45-1.7-7.55Q-8.9-2.8-3.2-3.85l1.2-.2q2.65-.55 5.05-1.9L6.5-8.5Q8-9.95 8.95-11.8" fill="#ff9" fill-rule="evenodd" transform="translate(14.25 14.45)"/><path d="m8.95-11.8 1.95 2.15q.65.95 1.1 3 .45 2-.1 5.2-.55 3.15-3.55 5.55t-8.5 2.85q-5.1.25-9.8-1.75l-.2-.25-.55-.7-1.35-2.1q-1.8-3.45-1.7-7.55 1-2.65 3.8-4.75l2.6-1.7 1.4-.65q4.55-2.05 9.55-1.25 2.7.55 5.35 1.95Z" fill="none" stroke="#cc6" stroke-linecap="round" stroke-linejoin="round" transform="translate(14.25 14.45)"/></g><g id="c"><path d="M7.8-8.65v-.05l.35-1.65q.25-1.45 2.05-3.15l2.1.3.25.6q.6 1.75.35 4.9-.15 2.9-.85 5.65Q11.4.6 9.5 2.7q-1.25.2-2.75-.9.9-2.4 1.3-4.8.45-2.8-.25-5.65" fill="#f39" fill-rule="evenodd" transform="translate(-4.15 14)"/><path d="M7.8-8.65Q8.5-5.8 8.05-3q-.4 2.4-1.3 4.8-1-1.35-1.45-2.85-.75-2.5-.6-5.15.1-2.7 2.1-4.7l.95 2.25h.05M9.5 2.7q1.9-2.1 2.55-4.75.7-2.75.85-5.65l1.5-2 .65-.35.35.75-.1.8-1.25 5.25q-.8 2.6-2.65 4.75-.9 1-1.9 1.2" fill="#c36" fill-rule="evenodd" transform="translate(-4.15 14)"/><path d="M12.9-7.7q.25-3.15-.35-4.9l-.25-.6-2.1-.3q-1.8 1.7-2.05 3.15L7.8-8.7v.05Q8.5-5.8 8.05-3q-.4 2.4-1.3 4.8 1.5 1.1 2.75.9 1.9-2.1 2.55-4.75.7-2.75.85-5.65l1.5-2 .65-.35.35.75-.1.8-1.25 5.25q-.8 2.6-2.65 4.75-.9 1-1.9 1.2M7.8-8.65h-.05L6.8-10.9q-2 2-2.1 4.7-.15 2.65.6 5.15.45 1.5 1.45 2.85M7.8-8.7l-.05.05" fill="none" stroke="#900" stroke-linecap="round" stroke-linejoin="round" transform="translate(-4.15 14)"/></g><use height="4" width="4" xlink:href="#d" id="a"/></defs></svg>

<?xml version="1.0" encoding="UTF-8" standalone="no"?>
<svg xmlns:xlink="http://www.w3.org/1999/xlink" height="92.9px" width="100.7px" xmlns="http://www.w3.org/2000/svg">
  <g transform="matrix(1.0, 0.0, 0.0, 1.0, 38.65, 49.75)">
    <use height="4.0" transform="matrix(1.0, 0.0, 0.0, 1.0, -15.4, 8.75)" width="4.0" xlink:href="#sprite0"/>
    <use height="4.0" transform="matrix(1.0, 0.0, 0.0, 1.0, 10.9, 8.95)" width="4.0" xlink:href="#sprite0"/>
    <use height="21.95" transform="matrix(1.0, 0.0, 0.0, 1.0, -14.25, -14.45)" width="26.95" xlink:href="#shape1"/>
    <use height="4.0" transform="matrix(1.0, 0.0, 0.0, 1.0, 9.4, -0.35)" width="4.0" xlink:href="#sprite0"/>
    <use height="17.25" transform="matrix(1.0, 0.0, 0.0, 1.0, 4.15, -14.0)" width="11.75" xlink:href="#shape2"/>
    <use height="4.0" transform="matrix(1.0, 0.0, 0.0, 1.0, 7.65, 0.9)" width="4.0" xlink:href="#sprite0"/>
    <use height="4.0" transform="matrix(1.0, 0.0, 0.0, 1.0, 5.0, 1.55)" width="4.0" xlink:href="#sprite0"/>
    <use height="4.0" transform="matrix(1.0, 0.0, 0.0, 1.0, -15.25, -4.6)" width="4.0" xlink:href="#sprite0"/>
    <use height="4.0" transform="matrix(1.0, 0.0, 0.0, 1.0, -13.9, -3.35)" width="4.0" xlink:href="#sprite0"/>
    <use height="4.0" transform="matrix(1.0, 0.0, 0.0, 1.0, -12.25, -2.5)" width="4.0" xlink:href="#sprite0"/>
    <use height="4.0" transform="matrix(1.0, 0.0, 0.0, 1.0, -10.25, -1.25)" width="4.0" xlink:href="#sprite0"/>
    <use height="4.0" transform="matrix(1.0, 0.0, 0.0, 1.0, -8.0, -0.35)" width="4.0" xlink:href="#sprite0"/>
    <use height="4.0" transform="matrix(1.0, 0.0, 0.0, 1.0, -5.75, 0.95)" width="4.0" xlink:href="#sprite0"/>
    <use height="4.0" transform="matrix(1.728, 0.0, 0.0, 1.728, -4.114, 0.086)" width="4.0" xlink:href="#sprite0"/>
    <use height="4.0" transform="matrix(1.0, 0.0, 0.0, 1.0, 2.75, 1.75)" width="4.0" xlink:href="#sprite0"/>
    <use height="4.0" transform="matrix(1.0, 0.0, 0.0, 1.0, 0.3, 2.15)" width="4.0" xlink:href="#sprite0"/>
  </g>
  <defs>
    <g id="sprite0" transform="matrix(1.0, 0.0, 0.0, 1.0, 0.5, 0.5)">
      <use height="4.0" transform="matrix(1.0, 0.0, 0.0, 1.0, -0.5, -0.5)" width="4.0" xlink:href="#shape0"/>
    </g>
    <g id="shape0" transform="matrix(1.0, 0.0, 0.0, 1.0, 0.5, 0.5)">
      <path d="M0.8 1.55 Q0.2 0.8 1.15 0.5 2.3 1.0 1.25 1.65 1.0 1.8 0.8 1.55" fill="#ffffff" fill-rule="evenodd" stroke="none"/>
      <path d="M2.55 2.55 L2.3 2.75 1.5 3.0 Q0.9 3.0 0.45 2.55 0.0 2.1 0.0 1.5 0.0 0.9 0.45 0.45 0.9 0.0 1.5 0.0 L2.3 0.25 2.55 0.45 Q3.0 0.9 3.0 1.5 3.0 2.1 2.55 2.55 M0.8 1.55 Q1.0 1.8 1.25 1.65 2.3 1.0 1.15 0.5 0.2 0.8 0.8 1.55" fill="#cccccc" fill-rule="evenodd" stroke="none"/>
      <path d="M2.55 2.55 L2.3 2.75 1.5 3.0 Q0.9 3.0 0.45 2.55 0.0 2.1 0.0 1.5 0.0 0.9 0.45 0.45 0.9 0.0 1.5 0.0 L2.3 0.25 2.55 0.45 Q3.0 0.9 3.0 1.5 3.0 2.1 2.55 2.55 Z" fill="none" stroke="#999999" stroke-linecap="round" stroke-linejoin="round" stroke-width="1.0"/>
    </g>
    <g id="shape1" transform="matrix(1.0, 0.0, 0.0, 1.0, 14.25, 14.45)">
      <path d="M-10.15 4.95 L-10.7 4.25 -12.05 2.15 Q0.15 1.8 10.9 -9.65 2.7 3.45 -10.15 4.95 M-13.75 -5.4 Q-12.75 -8.05 -9.95 -10.15 -7.75 -6.8 -4.05 -4.9 L-2.0 -4.05 -3.2 -3.85 Q-8.9 -2.8 -13.75 -5.4 M-5.95 -12.5 Q-1.4 -14.55 3.6 -13.75 6.3 -13.2 8.95 -11.8 8.0 -9.95 6.5 -8.5 L3.05 -5.95 1.1 -6.95 Q-2.8 -9.05 -5.95 -12.5" fill="#ffffff" fill-rule="evenodd" stroke="none"/>
      <path d="M-9.95 -10.15 L-7.35 -11.85 -5.95 -12.5 Q-2.8 -9.05 1.1 -6.95 L3.05 -5.95 Q0.65 -4.6 -2.0 -4.05 L-4.05 -4.9 Q-7.75 -6.8 -9.95 -10.15" fill="#ffffcc" fill-rule="evenodd" stroke="none"/>
      <path d="M8.95 -11.8 L10.9 -9.65 Q11.55 -8.7 12.0 -6.65 12.45 -4.65 11.9 -1.45 11.35 1.7 8.35 4.1 5.35 6.5 -0.15 6.95 -5.25 7.2 -9.95 5.2 L-10.15 4.95 Q2.7 3.45 10.9 -9.65 0.15 1.8 -12.05 2.15 -13.85 -1.3 -13.75 -5.4 -8.9 -2.8 -3.2 -3.85 L-2.0 -4.05 Q0.65 -4.6 3.05 -5.95 L6.5 -8.5 Q8.0 -9.95 8.95 -11.8" fill="#ffff99" fill-rule="evenodd" stroke="none"/>
      <path d="M8.95 -11.8 L10.9 -9.65 Q11.55 -8.7 12.0 -6.65 12.45 -4.65 11.9 -1.45 11.35 1.7 8.35 4.1 5.35 6.5 -0.15 6.95 -5.25 7.2 -9.95 5.2 L-10.15 4.95 -10.7 4.25 -12.05 2.15 Q-13.85 -1.3 -13.75 -5.4 -12.75 -8.05 -9.95 -10.15 L-7.35 -11.85 -5.95 -12.5 Q-1.4 -14.55 3.6 -13.75 6.3 -13.2 8.95 -11.8 Z" fill="none" stroke="#cccc66" stroke-linecap="round" stroke-linejoin="round" stroke-width="1.0"/>
    </g>
    <g id="shape2" transform="matrix(1.0, 0.0, 0.0, 1.0, -4.15, 14.0)">
      <path d="M7.8 -8.65 L7.8 -8.7 8.15 -10.35 Q8.4 -11.8 10.2 -13.5 L12.3 -13.2 12.55 -12.6 Q13.15 -10.85 12.9 -7.7 12.75 -4.8 12.05 -2.05 11.4 0.6 9.5 2.7 8.25 2.9 6.75 1.8 7.65 -0.6 8.05 -3.0 8.5 -5.8 7.8 -8.65" fill="#ff3399" fill-rule="evenodd" stroke="none"/>
      <path d="M7.8 -8.65 Q8.5 -5.8 8.05 -3.0 7.65 -0.6 6.75 1.8 5.75 0.45 5.3 -1.05 4.55 -3.55 4.7 -6.2 4.8 -8.9 6.8 -10.9 L7.75 -8.65 7.8 -8.65 M9.5 2.7 Q11.4 0.6 12.05 -2.05 12.75 -4.8 12.9 -7.7 L14.4 -9.7 15.05 -10.05 15.4 -9.3 15.3 -8.5 14.05 -3.25 Q13.25 -0.65 11.4 1.5 10.5 2.5 9.5 2.7" fill="#cc3366" fill-rule="evenodd" stroke="none"/>
      <path d="M12.9 -7.7 Q13.15 -10.85 12.55 -12.6 L12.3 -13.2 10.2 -13.5 Q8.4 -11.8 8.15 -10.35 L7.8 -8.7 7.8 -8.65 Q8.5 -5.8 8.05 -3.0 7.65 -0.6 6.75 1.8 8.25 2.9 9.5 2.7 11.4 0.6 12.05 -2.05 12.75 -4.8 12.9 -7.7 L14.4 -9.7 15.05 -10.05 15.4 -9.3 15.3 -8.5 14.05 -3.25 Q13.25 -0.65 11.4 1.5 10.5 2.5 9.5 2.7 M7.8 -8.65 L7.75 -8.65 6.8 -10.9 Q4.8 -8.9 4.7 -6.2 4.55 -3.55 5.3 -1.05 5.75 0.45 6.75 1.8 M7.8 -8.7 L7.75 -8.65" fill="none" stroke="#990000" stroke-linecap="round" stroke-linejoin="round" stroke-width="1.0"/>
    </g>
  </defs>
</svg>
